X: 1
T: Kost'er Ch'oad #3
O: Brittany
M: 4/4
L: 1/8
K: F
|: "F/D drone"A/A/ \
| A>GF>D E>FG>A | B>AG>F c3A/A/ | A>GF>D E>FG>A | B>AG>A F3 :|
|: f/f/ \
| f2d>e dcG2 | ABc>d cBAF | G>A B/c/B/A/ GFA2 | G>FEEG F3 :|
